X: 3080
T: Bear Dance, The
R: polka
M: 2/4
K: Eminor
BE E/F/G/A/|BE EF|GA/G/ FG|AB/A/ GA|
[1 BE E/F/G/A/|BE EF|GA/G/ F/E/D|E2 E2:|
[2 Be Be|BE EF|GA/G/ F/E/D|E2 E2||
|:G>B A/G/F|G>B A/G/F|d/A/F/A/ d=F|
Ec B^d|eB GF|EE/F/ GB|c/B/A/G/ F/E/D|E2 E2:|

